Numix-Circle/48x48/apps/playitslowly.svg

<?xml version="1.0" encoding="UTF-8" standalone="no"?>
<svg
   xmlns:dc="http://purl.org/dc/elements/1.1/"
   xmlns:cc="http://creativecommons.org/ns#"
   xmlns:rdf="http://www.w3.org/1999/02/22-rdf-syntax-ns#"
   xmlns:svg="http://www.w3.org/2000/svg"
   xmlns="http://www.w3.org/2000/svg"
   xmlns:sodipodi="http://sodipodi.sourceforge.net/DTD/sodipodi-0.dtd"
   xmlns:inkscape="http://www.inkscape.org/namespaces/inkscape"
   viewBox="0 0 48 48"
   id="svg2"
   version="1.1"
   inkscape:version="0.91 r13725"
   sodipodi:docname="playitslowly6b.svg">
  <metadata
     id="metadata61">
    <rdf:RDF>
      <cc:Work
         rdf:about="">
        <dc:format>image/svg+xml</dc:format>
        <dc:type
           rdf:resource="http://purl.org/dc/dcmitype/StillImage" />
        <dc:title></dc:title>
      </cc:Work>
    </rdf:RDF>
  </metadata>
  <sodipodi:namedview
     pagecolor="#ffffff"
     bordercolor="#666666"
     borderopacity="1"
     objecttolerance="10"
     gridtolerance="10"
     guidetolerance="10"
     inkscape:pageopacity="0"
     inkscape:pageshadow="2"
     inkscape:window-width="1366"
     inkscape:window-height="713"
     id="namedview59"
     showgrid="false"
     inkscape:zoom="8"
     inkscape:cx="19.550847"
     inkscape:cy="22.315064"
     inkscape:window-x="0"
     inkscape:window-y="28"
     inkscape:window-maximized="1"
     inkscape:current-layer="svg2">
    <inkscape:grid
       type="xygrid"
       id="grid4189" />
  </sodipodi:namedview>
  <defs
     id="defs4">
    <linearGradient
       id="linearGradient3764"
       x1="1"
       x2="47"
       gradientUnits="userSpaceOnUse"
       gradientTransform="matrix(0,-1,1,0,-1.5e-6,47.999998)">
      <stop
         stop-color="#3d3d3d"
         stop-opacity="1"
         id="stop7" />
      <stop
         offset="1"
         stop-color="#474747"
         stop-opacity="1"
         id="stop9" />
    </linearGradient>
    <clipPath
       id="clipPath-827788284">
      <g
         transform="translate(0,-1004.3622)"
         id="g12">
        <path
           d="m -24 13 c 0 1.105 -0.672 2 -1.5 2 -0.828 0 -1.5 -0.895 -1.5 -2 0 -1.105 0.672 -2 1.5 -2 0.828 0 1.5 0.895 1.5 2 z"
           transform="matrix(15.333333,0,0,11.5,414.99999,878.8622)"
           fill="#1890d0"
           id="path14" />
      </g>
    </clipPath>
    <clipPath
       id="clipPath-834711963">
      <g
         transform="translate(0,-1004.3622)"
         id="g17">
        <path
           d="m -24 13 c 0 1.105 -0.672 2 -1.5 2 -0.828 0 -1.5 -0.895 -1.5 -2 0 -1.105 0.672 -2 1.5 -2 0.828 0 1.5 0.895 1.5 2 z"
           transform="matrix(15.333333,0,0,11.5,414.99999,878.8622)"
           fill="#1890d0"
           id="path19" />
      </g>
    </clipPath>
  </defs>
  <g
     id="g21">
    <path
       d="m 36.31 5 c 5.859 4.062 9.688 10.831 9.688 18.5 c 0 12.426 -10.07 22.5 -22.5 22.5 c -7.669 0 -14.438 -3.828 -18.5 -9.688 c 1.037 1.822 2.306 3.499 3.781 4.969 c 4.085 3.712 9.514 5.969 15.469 5.969 c 12.703 0 23 -10.298 23 -23 c 0 -5.954 -2.256 -11.384 -5.969 -15.469 c -1.469 -1.475 -3.147 -2.744 -4.969 -3.781 z m 4.969 3.781 c 3.854 4.113 6.219 9.637 6.219 15.719 c 0 12.703 -10.297 23 -23 23 c -6.081 0 -11.606 -2.364 -15.719 -6.219 c 4.16 4.144 9.883 6.719 16.219 6.719 c 12.703 0 23 -10.298 23 -23 c 0 -6.335 -2.575 -12.06 -6.719 -16.219 z"
       opacity="0.05"
       id="path23" />
    <path
       d="m 41.28 8.781 c 3.712 4.085 5.969 9.514 5.969 15.469 c 0 12.703 -10.297 23 -23 23 c -5.954 0 -11.384 -2.256 -15.469 -5.969 c 4.113 3.854 9.637 6.219 15.719 6.219 c 12.703 0 23 -10.298 23 -23 c 0 -6.081 -2.364 -11.606 -6.219 -15.719 z"
       opacity="0.1"
       id="path25" />
    <path
       d="m 31.25 2.375 c 8.615 3.154 14.75 11.417 14.75 21.13 c 0 12.426 -10.07 22.5 -22.5 22.5 c -9.708 0 -17.971 -6.135 -21.12 -14.75 a 23 23 0 0 0 44.875 -7 a 23 23 0 0 0 -16 -21.875 z"
       opacity="0.2"
       id="path27" />
  </g>
  <g
     id="g29">
    <path
       d="m 24,1 c 3.17575,0 6.201125,0.6435625 8.952828,1.8073906 C 35,8 45,25 45.192609,32.952828 44.028781,35.704531 42.344688,38.182563 40.263625,40.263625 36.1015,44.42575 30.3515,47 24,47 20.82425,47 17.798875,46.356437 15.047172,45.192609 7,36 3,26 2.8073906,15.047172 3.9712187,12.295469 5.6553125,9.8174375 7.736375,7.736375 11.8985,3.57425 17.6485,1 24,1 Z"
       id="path31"
       inkscape:connector-curvature="0"
       style="fill:url(#linearGradient3764);fill-opacity:1"
       sodipodi:nodetypes="sccssccss" />
  </g>
  <g
     id="g33" />
  <g
     id="g35">
    <g
       clip-path="url(#clipPath-827788284)"
       id="g37">
      <g
         transform="translate(1,1)"
         id="g39">
        <g
           opacity="0.1"
           id="g41">
          <!-- color: #474747 -->
          <g
             id="g43">
            <path
               d="M 7.46875 1 C 4.99575 2.805 2.809 4.99975 1 7.46875 L 1 42.4375 C 5.926 45.5275 11.63675 47.5235 17.34375 47.4375 C 23.38375 47.3475 29.3635 44.92525 34.1875 38.90625 C 39.1175 32.75025 35.6285 24.13625 31.3125 21.65625 C 29.326029 20.735343 27.721522 21.408343 26.607422 22.460938 C 26.403951 20.97129 26.198614 19.478205 26 18 C 26 18 30 18 32 19 C 35.224903 20.612452 37 24 37 24 L 37 17 C 37 17 34 15 30 14 C 29.214867 13.803717 28.48397 13.656088 27.791016 13.529297 C 27.853735 13.52142 27.913399 13.506895 27.976562 13.5 C 36.929563 12.52 43.851312 21.41025 44.570312 29.78125 C 45.168312 36.79125 42.175812 43.765 37.382812 49 L 42.535156 49 C 45.008156 47.195 47.198813 45.00025 49.007812 42.53125 L 49.007812 7.5625 C 44.077813 4.4725 38.367156 2.4765 32.660156 2.5625 L 32.664062 2.5644531 C 26.624062 2.6544531 20.644313 5.0767031 15.820312 11.095703 C 10.916568 17.218918 14.342915 25.769243 18.626953 28.300781 C 15.930754 28.995809 14 30.834513 14 33 C 14 33.688896 14.196026 34.344229 14.548828 34.941406 C 9.4438868 32.115216 5.9351619 26.047176 5.4375 20.220703 C 4.8355 13.210703 7.828 6.2369531 12.625 1.0019531 L 7.46875 1 z M 23.417969 15.095703 L 25.253906 24.310547 C 25.141631 24.555786 25.055814 24.791113 25 25.001953 C 25.101982 24.955272 25.236094 24.904523 25.363281 24.855469 L 26.34375 29.78125 C 25.402926 28.985479 24.122685 28.402855 22.662109 28.146484 C 23.932359 27.339679 24.760772 25.942533 25.009766 25.001953 C 23.755766 25.575953 20.434313 26.2585 19.695312 23.8125 C 19.169822 19.968373 20.720716 16.876826 23.417969 15.095703 z M 27.865234 24.353516 C 28.952109 24.361766 29.97425 24.747703 30.34375 25.970703 C 30.774836 29.142781 29.786387 31.869388 27.910156 33.763672 C 27.963792 33.514207 28 33.260184 28 33 C 27.652043 30.182582 27.267851 27.315062 26.876953 24.443359 C 27.202663 24.38903 27.534892 24.351008 27.865234 24.353516 z "
               transform="translate(-1,-1)"
               id="path45" />
          </g>
        </g>
      </g>
    </g>
  </g>
  <g
     id="g47">
    <g
       clip-path="url(#clipPath-834711963)"
       id="g49">
      <!-- color: #474747 -->
      <g
         id="g51">
        <path
           d="m 6.469 0 c -2.473 1.805 -4.66 4 -6.469 6.469 l 0 34.969 c 4.926 3.09 10.637 5.086 16.344 5 c 6.04 -0.09 12.02 -2.512 16.844 -8.531 c 4.93 -6.156 1.441 -14.77 -2.875 -17.25 c -3.488 -1.617 -5.859 1.629 -6.313 3.344 c 1.254 -0.574 4.605 -1.477 5.344 0.969 c 0.773 5.688 -3.01 9.953 -8.313 10.531 c -8.957 0.98 -15.879 -7.91 -16.594 -16.281 c -0.602 -7.01 2.391 -13.984 7.188 -19.219 m 20.04 1.563 c -6.04 0.09 -12.02 2.512 -16.844 8.531 c -4.93 6.156 -1.441 14.77 2.875 17.25 c 3.488 1.617 5.859 -1.629 6.313 -3.344 c -1.254 0.574 -4.574 1.258 -5.313 -1.188 c -0.777 -5.684 2.977 -9.734 8.281 -10.313 c 8.953 -0.98 15.875 7.91 16.594 16.281 c 0.598 7.01 -2.395 13.984 -7.188 19.219 l 5.152 0 c 2.473 -1.805 4.664 -4 6.473 -6.469 l 0 -34.969 c -4.93 -3.09 -10.641 -5.086 -16.348 -5 m 0.004 0"
           fill="#d64936"
           stroke="none"
           fill-rule="evenodd"
           fill-opacity="1"
           id="path53" />
        <path
           d="M 23 13 L 23.134766 13.671875 C 23.553593 13.446625 23.993952 13.250072 24.455078 13.083984 C 23.595081 13.016445 23 13 23 13 z M 26.384766 20.830078 C 25.758798 21.219047 25.253629 21.755505 24.855469 22.310547 L 25.113281 23.609375 C 25.613251 23.472212 26.17294 23.374553 26.730469 23.363281 C 26.614957 22.51696 26.499872 21.674553 26.384766 20.830078 z M 27.826172 31.662109 C 26.328657 33.783833 23.907658 35.188439 21.03125 35.501953 C 18.586164 35.769474 16.30107 35.2812 14.244141 34.289062 C 15.041349 36.424387 17.759359 38 21 38 C 24.865993 38 28 35.761424 28 33 C 27.945563 32.559224 27.882295 32.105223 27.826172 31.662109 z "
           id="path3372"
           style="fill:#000000;fill-opacity:0.09803922" />
      </g>
    </g>
  </g>
  <g
     id="g55">
    <path
       d="m 40.03 7.531 c 3.712 4.084 5.969 9.514 5.969 15.469 0 12.703 -10.297 23 -23 23 c -5.954 0 -11.384 -2.256 -15.469 -5.969 4.178 4.291 10.01 6.969 16.469 6.969 c 12.703 0 23 -10.298 23 -23 0 -6.462 -2.677 -12.291 -6.969 -16.469 z"
       opacity="0.1"
       id="path57" />
  </g>
  <path
     inkscape:connector-curvature="0"
     style="fill:#52eeba;fill-opacity:1;fill-rule:nonzero;stroke:none"
     d="m 22,12 3.34375,16.78125 C 24.059697,27.695168 22.145989,27 20,27 c -3.865993,0 -7,2.238576 -7,5 0,2.761424 3.134007,5 7,5 3.865993,0 7,-2.238576 7,-5 -0.608786,-4.92936 -1.330424,-10.0166 -2,-15 0,0 4,0 6,1 3.224903,1.612452 5,5 5,5 l 0,-7 c 0,0 -3,-2 -7,-3 -4,-1 -7,-1 -7,-1 z"
     id="path3067"
     sodipodi:nodetypes="ccsssccsccsc" />
</svg>

<svg xmlns="http://www.w3.org/2000/svg" viewBox="0 0 48 48"><defs><linearGradient id="linearGradient3764" x1="1" x2="47" gradientUnits="userSpaceOnUse" gradientTransform="matrix(0,-1,1,0,-1.5e-6,47.999998)"><stop stop-color="#3d3d3d" stop-opacity="1"/><stop offset="1" stop-color="#474747" stop-opacity="1"/></linearGradient><clipPath id="clipPath-827788284"><g transform="translate(0,-1004.3622)"><path d="m -24 13 c 0 1.105 -0.672 2 -1.5 2 -0.828 0 -1.5 -0.895 -1.5 -2 0 -1.105 0.672 -2 1.5 -2 0.828 0 1.5 0.895 1.5 2 z" transform="matrix(15.333333,0,0,11.5,414.99999,878.8622)" fill="#1890d0"/></g></clipPath><clipPath id="clipPath-834711963"><g transform="translate(0,-1004.3622)"><path d="m -24 13 c 0 1.105 -0.672 2 -1.5 2 -0.828 0 -1.5 -0.895 -1.5 -2 0 -1.105 0.672 -2 1.5 -2 0.828 0 1.5 0.895 1.5 2 z" transform="matrix(15.333333,0,0,11.5,414.99999,878.8622)" fill="#1890d0"/></g></clipPath></defs><g><path d="m 36.31 5 c 5.859 4.062 9.688 10.831 9.688 18.5 c 0 12.426 -10.07 22.5 -22.5 22.5 c -7.669 0 -14.438 -3.828 -18.5 -9.688 c 1.037 1.822 2.306 3.499 3.781 4.969 c 4.085 3.712 9.514 5.969 15.469 5.969 c 12.703 0 23 -10.298 23 -23 c 0 -5.954 -2.256 -11.384 -5.969 -15.469 c -1.469 -1.475 -3.147 -2.744 -4.969 -3.781 z m 4.969 3.781 c 3.854 4.113 6.219 9.637 6.219 15.719 c 0 12.703 -10.297 23 -23 23 c -6.081 0 -11.606 -2.364 -15.719 -6.219 c 4.16 4.144 9.883 6.719 16.219 6.719 c 12.703 0 23 -10.298 23 -23 c 0 -6.335 -2.575 -12.06 -6.719 -16.219 z" opacity="0.05"/><path d="m 41.28 8.781 c 3.712 4.085 5.969 9.514 5.969 15.469 c 0 12.703 -10.297 23 -23 23 c -5.954 0 -11.384 -2.256 -15.469 -5.969 c 4.113 3.854 9.637 6.219 15.719 6.219 c 12.703 0 23 -10.298 23 -23 c 0 -6.081 -2.364 -11.606 -6.219 -15.719 z" opacity="0.1"/><path d="m 31.25 2.375 c 8.615 3.154 14.75 11.417 14.75 21.13 c 0 12.426 -10.07 22.5 -22.5 22.5 c -9.708 0 -17.971 -6.135 -21.12 -14.75 a 23 23 0 0 0 44.875 -7 a 23 23 0 0 0 -16 -21.875 z" opacity="0.2"/></g><g><path d="m 24 1 c 3.176 0 6.201 0.644 8.953 1.807 c 2.047 5.193 12.05 22.19 12.24 30.15 -1.164 2.752 -2.848 5.23 -4.929 7.311 -4.162 4.162 -9.912 6.736 -16.264 6.736 -3.176 0 -6.201 -0.644 -8.953 -1.807 -8.05 -9.193 -12.05 -19.19 -12.24 -30.15 1.164 -2.752 2.848 -5.23 4.929 -7.311 4.162 -4.162 9.912 -6.736 16.264 -6.736" fill="url(#linearGradient3764)" fill-opacity="1"/></g><g><g clip-path="url(#clipPath-827788284)"><g transform="translate(1,1)"><g opacity="0.1"><!-- color: #474747 --><g><path d="m 7.469 1 c -2.473 1.805 -4.66 4 -6.469 6.469 l 0 34.969 c 4.926 3.09 10.637 5.086 16.344 5 c 6.04 -0.09 12.02 -2.512 16.844 -8.531 c 4.93 -6.156 1.441 -14.77 -2.875 -17.25 c -1.986 -0.921 -3.591 -0.248 -4.705 0.805 c -0.203 -1.49 -0.409 -2.983 -0.607 -4.461 c 0 0 4 0 6 1 c 3.225 1.612 5 5 5 5 l 0 -7 c 0 0 -3 -2 -7 -3 c -0.785 -0.196 -1.516 -0.344 -2.209 -0.471 c 0.063 -0.008 0.122 -0.022 0.186 -0.029 c 8.953 -0.98 15.875 7.91 16.594 16.281 c 0.598 7.01 -2.395 13.984 -7.188 19.219 l 5.152 0 c 2.473 -1.805 4.664 -4 6.473 -6.469 l 0 -34.969 c -4.93 -3.09 -10.641 -5.086 -16.348 -5 l 0.004 0.002 c -6.04 0.09 -12.02 2.512 -16.844 8.531 c -4.904 6.123 -1.477 14.674 2.807 17.205 c -2.696 0.695 -4.627 2.534 -4.627 4.699 c 0 0.689 0.196 1.344 0.549 1.941 c -5.105 -2.826 -8.614 -8.894 -9.111 -14.721 c -0.602 -7.01 2.391 -13.984 7.188 -19.219 l -5.156 -0.002 z m 15.949 14.1 l 1.836 9.215 c -0.112 0.245 -0.198 0.481 -0.254 0.691 c 0.102 -0.047 0.236 -0.097 0.363 -0.146 l 0.98 4.926 c -0.941 -0.796 -2.221 -1.378 -3.682 -1.635 c 1.27 -0.807 2.099 -2.204 2.348 -3.145 c -1.254 0.574 -4.575 1.257 -5.314 -1.189 c -0.525 -3.844 1.025 -6.936 3.723 -8.717 z m 4.447 9.258 c 1.087 0.008 2.109 0.394 2.479 1.617 c 0.431 3.172 -0.557 5.899 -2.434 7.793 c 0.054 -0.249 0.09 -0.503 0.09 -0.764 c -0.348 -2.817 -0.732 -5.685 -1.123 -8.557 c 0.326 -0.054 0.658 -0.092 0.988 -0.09 z" transform="translate(-1,-1)"/></g></g></g></g></g><g><g clip-path="url(#clipPath-834711963)"><!-- color: #474747 --><g><path d="m 6.469 0 c -2.473 1.805 -4.66 4 -6.469 6.469 l 0 34.969 c 4.926 3.09 10.637 5.086 16.344 5 c 6.04 -0.09 12.02 -2.512 16.844 -8.531 c 4.93 -6.156 1.441 -14.77 -2.875 -17.25 c -3.488 -1.617 -5.859 1.629 -6.313 3.344 c 1.254 -0.574 4.605 -1.477 5.344 0.969 c 0.773 5.688 -3.01 9.953 -8.313 10.531 c -8.957 0.98 -15.879 -7.91 -16.594 -16.281 c -0.602 -7.01 2.391 -13.984 7.188 -19.219 m 20.04 1.563 c -6.04 0.09 -12.02 2.512 -16.844 8.531 c -4.93 6.156 -1.441 14.77 2.875 17.25 c 3.488 1.617 5.859 -1.629 6.313 -3.344 c -1.254 0.574 -4.574 1.258 -5.313 -1.188 c -0.777 -5.684 2.977 -9.734 8.281 -10.313 c 8.953 -0.98 15.875 7.91 16.594 16.281 c 0.598 7.01 -2.395 13.984 -7.188 19.219 l 5.152 0 c 2.473 -1.805 4.664 -4 6.473 -6.469 l 0 -34.969 c -4.93 -3.09 -10.641 -5.086 -16.348 -5 m 0.004 0" fill="#d64936" stroke="none" fill-rule="evenodd" fill-opacity="1"/><path d="m 23 13 l 0.135 0.672 c 0.419 -0.225 0.859 -0.422 1.32 -0.588 c -0.86 -0.068 -1.455 -0.084 -1.455 -0.084 z m 3.385 7.83 c -0.626 0.389 -1.131 0.925 -1.529 1.48 l 0.258 1.299 c 0.5 -0.137 1.06 -0.235 1.617 -0.246 c -0.116 -0.846 -0.231 -1.689 -0.346 -2.533 z m 1.441 10.832 c -1.498 2.122 -3.919 3.526 -6.795 3.84 c -2.445 0.268 -4.73 -0.221 -6.787 -1.213 c 0.797 2.135 3.515 3.711 6.756 3.711 c 3.866 0 7 -2.239 7 -5 c -0.054 -0.441 -0.118 -0.895 -0.174 -1.338 z" fill="#000" fill-opacity="0.098"/></g></g></g><g><path d="m 40.03 7.531 c 3.712 4.084 5.969 9.514 5.969 15.469 0 12.703 -10.297 23 -23 23 c -5.954 0 -11.384 -2.256 -15.469 -5.969 4.178 4.291 10.01 6.969 16.469 6.969 c 12.703 0 23 -10.298 23 -23 0 -6.462 -2.677 -12.291 -6.969 -16.469 z" opacity="0.1"/></g><path d="m 22 12 3.344 16.781 c -1.284 -1.086 -3.198 -1.781 -5.344 -1.781 c -3.866 0 -7 2.239 -7 5 0 2.761 3.134 5 7 5 3.866 0 7 -2.239 7 -5 -0.609 -4.929 -1.33 -10.02 -2 -15 0 0 4 0 6 1 3.225 1.612 5 5 5 5 l 0 -7 c 0 0 -3 -2 -7 -3 -4 -1 -7 -1 -7 -1 z" fill="#52eeba" fill-rule="nonzero" stroke="none" fill-opacity="1"/></svg>
